packages/core/src/svgs/tokens/mono/YCC.svg

<svg width="24" height="24" viewBox="0 0 24 24" fill="none" xmlns="http://www.w3.org/2000/svg">
<path d="M15.7568 12.0303L20.9499 8.71588C21.6433 8.20036 22.665 6.67503 21.3996 4.60661C20.1631 2.58517 18.379 2.62088 17.695 3.03933L9.4826 8.12713L12.3272 9.71315L18.0683 6.29919C18.4253 6.0837 18.6722 6.0812 18.7731 6.25723C18.8739 6.43386 18.8232 6.58295 18.5037 6.80471L15.7568 8.53302V12.0303ZM6.31486 3.07002L11.6857 6.01606L8.8606 7.82325L5.89139 6.16326C5.48924 5.94777 5.31071 6.0242 5.2299 6.16326C5.14973 6.30108 5.18292 6.52658 5.5356 6.70824L11.9984 10.2656V13.6214L3.0268 8.72786C2.3227 8.34447 1.39874 6.81724 2.53194 4.73566C3.69079 2.60584 5.52182 2.72739 6.31486 3.07002ZM9.49269 18.6685V12.9035L11.9984 14.3975V17.5459C11.9984 18.0508 12.1456 18.1566 12.3109 18.1535C12.6016 18.1484 12.6342 17.933 12.6247 17.5459V10.2738L15.1304 8.83807V18.8488C15.1304 19.6318 14.628 21.1898 12.3109 21.1898C9.94053 21.1898 9.5684 19.5096 9.49269 18.6685Z" fill="white"/>
</svg>

<svg xmlns="http://www.w3.org/2000/svg" width="24" height="24" fill="none" viewBox="0 0 24 24">
    <path fill="#fff" d="m15.757 12.03 5.193-3.314c.693-.516 1.715-2.041.45-4.11-1.237-2.02-3.021-1.985-3.705-1.567L9.483 8.127l2.844 1.586L18.068 6.3c.357-.215.604-.218.705-.042.1.177.05.326-.27.548l-2.746 1.728zM6.315 3.07l5.37 2.946-2.824 1.807-2.97-1.66c-.402-.215-.58-.139-.661 0-.08.138-.047.364.306.545l6.462 3.558v3.355L3.027 8.728c-.704-.384-1.628-1.91-.495-3.992 1.159-2.13 2.99-2.009 3.783-1.666m3.178 15.599v-5.766l2.505 1.495v3.148c0 .505.148.61.313.608.29-.006.323-.221.314-.608v-7.272l2.505-1.436v10.01c0 .784-.502 2.342-2.82 2.342-2.37 0-2.742-1.68-2.817-2.521"/>
</svg>
